assets/sonr-icons/fil.svg

<svg xmlns="http://www.w3.org/2000/svg" width="24" height="24" fill="none" viewBox="0 0 24 24"><path fill="#000" stroke="#000" stroke-width="1.059" d="M13.267 10.304L12.833 12.621L16.96 13.2L16.67 14.286L12.616 13.707C12.326 14.648 12.182 15.662 11.82 16.531C11.458 17.545 11.096 18.558 10.661 19.499C10.082 20.73 9.06801 21.599 7.69201 21.816C6.89601 21.961 6.02701 21.888 5.37501 21.382C5.15701 21.237 4.94101 20.948 4.94101 20.73C4.94101 20.44 5.08601 20.078 5.30301 19.933C5.44801 19.86 5.81001 19.933 6.02701 20.006C6.24401 20.223 6.46101 20.513 6.60601 20.802C7.04001 21.381 7.61901 21.454 8.19901 21.02C8.85101 20.441 9.21301 19.645 9.43001 18.848C9.86401 17.11 10.298 15.445 10.661 13.708V13.418L6.82301 12.839L6.96801 11.753L10.95 12.332L11.457 10.087L7.33001 9.43501L7.47501 8.27601L11.747 8.85501C11.892 8.42101 11.964 8.05901 12.109 7.69601C12.471 6.39301 12.833 5.09001 13.702 3.93101C14.571 2.77201 15.584 2.04901 17.105 2.12101C17.757 2.12101 18.408 2.33801 18.843 2.84501C18.916 2.91801 19.06 3.06201 19.06 3.20701C19.06 3.49701 19.06 3.85901 18.843 4.07601C18.553 4.29301 18.191 4.22101 17.902 3.93101C17.684 3.71301 17.54 3.49701 17.323 3.27901C16.889 2.70001 16.237 2.62701 15.73 3.13401C15.368 3.49601 15.006 4.00201 14.789 4.51001C14.282 6.03001 13.92 7.62301 13.413 9.21601L17.395 9.79501L17.105 10.881L13.266 10.303L13.267 10.304Z"/></svg>

<svg xmlns="http://www.w3.org/2000/svg" width="24" height="24" fill="none"><path fill="currentColor" stroke="#000" stroke-width="1.059" d="m13.267 10.304-.434 2.317 4.127.579-.29 1.086-4.054-.579c-.29.941-.434 1.955-.796 2.824-.362 1.014-.724 2.027-1.159 2.968-.579 1.231-1.593 2.1-2.969 2.317-.796.145-1.665.072-2.317-.434-.218-.145-.434-.434-.434-.652 0-.29.145-.652.362-.797.145-.073.507 0 .724.073.217.217.434.507.579.796.434.579 1.013.652 1.593.218.652-.579 1.014-1.375 1.231-2.172.434-1.738.868-3.403 1.231-5.14v-.29l-3.838-.579.145-1.086 3.982.579.507-2.245-4.127-.652.145-1.159 4.272.579c.145-.434.217-.796.362-1.159.362-1.303.724-2.606 1.593-3.765s1.882-1.882 3.403-1.81c.652 0 1.303.217 1.738.724.073.073.217.217.217.362 0 .29 0 .652-.217.869-.29.217-.652.145-.941-.145-.218-.218-.362-.434-.579-.652-.434-.579-1.086-.652-1.593-.145a4.6 4.6 0 0 0-.941 1.376c-.507 1.52-.869 3.113-1.376 4.706l3.982.579-.29 1.086-3.839-.578z"/></svg>
